svg/mushroom.svg

<svg xmlns="http://www.w3.org/2000/svg" viewBox="0 0 24 24"><path d="M12 2a10 10 0 0 1 10 10 2 2 0 0 1-2 2H4a2 2 0 0 1-2-2A10 10 0 0 1 12 2m0 6a2 2 0 0 0 2-2 2 2 0 0 0-2-2 2 2 0 0 0-2 2 2 2 0 0 0 2 2m5 4a2 2 0 0 0 2-2 2 2 0 0 0-2-2 2 2 0 0 0-2 2 2 2 0 0 0 2 2M7 12a2 2 0 0 0 2-2 2 2 0 0 0-2-2 2 2 0 0 0-2 2 2 2 0 0 0 2 2m8 3 1.27 4.45.08.55c0 1.1-.9 2-2 2h-4.7a2 2 0 0 1-2-2l.08-.55L9 15z"/></svg>

<?xml version="1.0" encoding="UTF-8"?><!DOCTYPE svg PUBLIC "-//W3C//DTD SVG 1.1//EN" "http://www.w3.org/Graphics/SVG/1.1/DTD/svg11.dtd"><svg xmlns="http://www.w3.org/2000/svg" xmlns:xlink="http://www.w3.org/1999/xlink" version="1.1" id="mdi-mushroom" width="24" height="24" viewBox="0 0 24 24"><path d="M12,2A10,10 0 0,1 22,12A2,2 0 0,1 20,14H4A2,2 0 0,1 2,12A10,10 0 0,1 12,2M12,8A2,2 0 0,0 14,6A2,2 0 0,0 12,4A2,2 0 0,0 10,6A2,2 0 0,0 12,8M17,12A2,2 0 0,0 19,10A2,2 0 0,0 17,8A2,2 0 0,0 15,10A2,2 0 0,0 17,12M7,12A2,2 0 0,0 9,10A2,2 0 0,0 7,8A2,2 0 0,0 5,10A2,2 0 0,0 7,12M15,15L16.27,19.45L16.35,20C16.35,21.1 15.45,22 14.35,22H9.65A2,2 0 0,1 7.65,20L7.73,19.45L9,15H15Z" /></svg>
